dist/img/svg/compare.svg

<svg width="26" height="25" viewBox="0 0 26 25" fill="none" xmlns="http://www.w3.org/2000/svg">
<path d="M15.2269 19.5C15.2269 21.1569 16.57 22.5 18.2269 22.5H18.6436C20.3004 22.5 21.6436 21.1569 21.6436 19.5V12.7727C21.6436 11.1159 20.3004 9.77273 18.6436 9.77273H18.2269C16.57 9.77273 15.2269 11.1159 15.2269 12.7727V19.5Z" stroke="currentColor" stroke-width="2" stroke-linecap="round" stroke-linejoin="round"/>
<path d="M4.14355 19.5C4.14355 21.1569 5.4867 22.5 7.14355 22.5H7.56022C9.21708 22.5 10.5602 21.1569 10.5602 19.5V5.5C10.5602 3.84315 9.21708 2.5 7.56022 2.5H7.14355C5.4867 2.5 4.14355 3.84315 4.14355 5.5V19.5Z" stroke="currentColor" stroke-width="2" stroke-linecap="round" stroke-linejoin="round"/>
</svg>

<svg width="26" height="25" viewBox="0 0 26 25" fill="none" xmlns="http://www.w3.org/2000/svg"><path d="M15.227 19.5a3 3 0 003 3h.417a3 3 0 003-3v-6.727a3 3 0 00-3-3h-.417a3 3 0 00-3 3V19.5zm-11.083 0a3 3 0 003 3h.416a3 3 0 003-3v-14a3 3 0 00-3-3h-.416a3 3 0 00-3 3v14z" stroke="currentColor" stroke-width="2" stroke-linecap="round" stroke-linejoin="round"/></svg>
